actions/16/view-financial-category-add.svg

<svg version="1.1" viewBox="0 0 16 16" xmlns="http://www.w3.org/2000/svg"><style type="text/css" id="current-color-scheme">.ColorScheme-Text { color:#eff0f1; }</style>
    <path d="m2 2v1h11v2h1v-3zm0 2v10h4v-1h-3v-8h9v-1zm2 2v1h2v-1zm3 0v8h1v-7h5v1h1v-2zm-3 3v1h1v-1zm7 0v2h-2v1h2v2h1v-2h2v-1h-2v-2zm-7 2v1h2v-1z" fill="currentColor" class="ColorScheme-Text"/>
</svg>

<svg version="1.1" viewBox="0 0 16 16" xmlns="http://www.w3.org/2000/svg"><style type="text/css" id="current-color-scheme">.ColorScheme-Text { color: #fcfcfc; }</style>
    <path d="m 2,2 v 1 h 10 c 0,0 1,0 1,1 0,1 0,1 0,1 h 1 c 0,0 0,1 0,-1 0,-2 -2,-2 -2,-2 z m 0,4 c 0,1.5112812 0,4.23543 0,6 0,2 2,2 2,2 H 6 V 13 H 4 C 4,13 3,13 3,12 3,11 3,7 3,6 3,5 4,5 4,5 h 8 V 4 H 4 C 4,4 2,4 2,6 Z M 4,6 V 7 H 6 V 6 Z m 3,2 v 6 H 8 V 8 c 0,0 0,-1 1,-1 1,0 2,0 3,0 1,0 1,1 1,1 h 1 C 14,8 14,6 12,6 10,6 11,6 9,6 7,6 7,8 7,8 Z M 4,9 v 1 H 5 V 9 Z m 7,0 v 2 H 9 v 1 h 2 v 2 h 1 v -2 h 2 V 11 H 12 V 9 Z m -7,2 v 1 h 2 v -1 z" fill="currentColor" class="ColorScheme-Text"/>
</svg>
